icons/t-shirt-line.svg

<svg xmlns="http://www.w3.org/2000/svg" width="24" height="24" fill="none"><g clip-path="url(#a)"><g><path fill="#121212" d="M14.5155 4.9999L17.1215 2.3929C17.2143 2.29992 17.3246 2.22616 17.446 2.17584C17.5674 2.12551 17.6976 2.09961 17.829 2.09961C17.9604 2.09961 18.0905 2.12551 18.2119 2.17584C18.3333 2.22616 18.4436 2.29992 18.5365 2.3929L22.7785 6.6359C22.9659 6.82342 23.0713 7.07773 23.0713 7.3429C23.0713 7.60806 22.9659 7.86237 22.7785 8.0499L19.0005 11.8279V20.9999C19.0005 21.2651 18.8951 21.5195 18.7076 21.707C18.52 21.8945 18.2657 21.9999 18.0005 21.9999H6.00047C5.73526 21.9999 5.4809 21.8945 5.29337 21.707C5.10583 21.5195 5.00047 21.2651 5.00047 20.9999V11.8279L1.22247 8.0499C1.035 7.86237 0.929688 7.60806 0.929688 7.3429C0.929688 7.07773 1.035 6.82342 1.22247 6.6359L5.46447 2.3929C5.55735 2.29992 5.66764 2.22616 5.78903 2.17584C5.91043 2.12551 6.04056 2.09961 6.17197 2.09961C6.30339 2.09961 6.43352 2.12551 6.55491 2.17584C6.67631 2.22616 6.7866 2.29992 6.87947 2.3929L9.48547 4.9999H14.5155ZM15.3435 6.9999H8.65747L6.17247 4.5149L3.34347 7.3429L7.00047 10.9999V19.9999H17.0005V10.9999L20.6575 7.3429L17.8285 4.5149L15.3435 6.9999Z"/></g></g><defs><clipPath id="a"><rect width="24" height="24" fill="white"/></clipPath></defs></svg>

<svg width="24" height="24" fill="none" xmlns="http://www.w3.org/2000/svg"><g clip-path="url(#a)"><path d="m14.515 5 2.607-2.607a.999.999 0 0 1 1.415 0l4.242 4.243a1 1 0 0 1 0 1.414L19 11.828V21a1 1 0 0 1-1 1H6a1 1 0 0 1-1-1v-9.172L1.222 8.05a1 1 0 0 1 0-1.414l4.242-4.243a1 1 0 0 1 1.415 0L9.485 5h5.03Zm.829 2H8.657L6.172 4.515 3.343 7.343 7 11v9h10v-9l3.657-3.657-2.829-2.828L15.344 7Z" /></g><defs><clipPath id="a"><path fill="#fff" d="M0 0h24v24H0z"/></clipPath></defs></svg>
